!!!!SEGMENT: pl-sa--559-a-ix-39--002_anonim--polonez.krn
!!!cenid: 18xx:585
!!!COM: Anonim
!!!COM-rismid: pe30004985
!!!CDT:
!!!CNT:
!!!OTL: Polonez
!!!PDT:
!!!AGN: Secular; Polonaise
!!!SMS-siglum: PL-SA
!!!SMS-shelfmark: 559/A IX 39
!!!SMS-shelfwork: 002 W
!!!SMS-variant:
!!!SMS-altvar:
!!!NIFC-rismid: 1001065424
!!!URL-scan: http://bc.bdsandomierz.pl/dlibra/publication/1315/edition/1283/content
!!!ONB-nifc: Str. 2 – 3 (s. 1)
!!!key: D
**kern	**kern	**dynam
*part1	*part1	*part1
*staff2	*staff1	*
*I"[Pianoforte]	*I"[Pianoforte]	*
*Ipiano	*Ipiano	*
*ICklav	*ICklav	*
*clefF4	*clefG2	*
*k[f#c#]	*k[f#c#]	*
*D:	*D:	*
*M3/4	*M3/4	*
=1	=1	=1
*2\right	*2\right	*2\right
!!LO:TX:t=P:problem:metrum zapisane ułamkiem
!	!LO:TX:t=Z prawdziwą przyjemnością odebrałam Serdeczni[...]	!
4D 4DD`/	4dd 4d`\	.
4F# 4FF#`/	4ff# 4f#`\	.
4A 4AA`/	4aa 4a`\	.
=2	=2	=2
!LO:N:vis=8	!LO:N:n=2:vis=8	!
8.dL 8.D\	8.dddL 8.dd\	.
8.f#J 8.F#^\	8.fff#J 8.ff#^\	.
(16e\LL	16eee\LL	.
16d\JJ	16ddd\JJ	.
16c#\LL	16ccc#\LL	.
16B\	16bb\	.
16A\	16aa\	.
16G\JJ	16gg\JJ	.
=3	=3	=3
16F#\LL	16ff#\LL	.
16E\	16ee\	.
16D\	16dd\	.
16C#\JJ	16cc#\JJ	.
16BB/LL	16b\LL	.
16AA/	16a\	.
16GG/	16g\	.
16FF#/JJ)	16f#\JJ	.
16EE/LL	16e/LL	.
16DD/	16d/	.
16CC#/	16c#/	.
16BBB/JJ	16B/JJ	.
=4	=4	=4
8AAA/	8A/	.
8r	8r	.
8A 8E 8C# 8AA\	8aa 8ee 8cc# 8a\	.
8r	8r	.
8r	8r	.
!!LO:TX:t=[segno]:problem:znak segno na kresce taktowej
8r	8a/	.
=5||	=5||	=5||
8dL 8D\	8a/L	.
8f#J 8d 8A\	16b/L	.
.	16cc#/JJ	.
8f#L 8d 8A\	8dd'\L	.
8f#J 8d 8A\	8ee'\J	.
8f#L 8d 8A\	8dd'\L	.
8f#J 8d 8A\	8gg'\J	.
=6	=6	=6
8C#\L	8.bb\L	.
8eJ 8c# 8A\	.	.
.	16aa\Jk	.
*tremolo	*	*
!	!LO:TX:t=P:problem=4.dd poprawione na 4.ee	!
8e 8c# 8A\L	(4.ee\	.
8e 8c# 8A\	.	.
8e 8c# 8A\	.	.
8e 8c# 8A\J	8gg\)	.
*Xtremolo	*	*
=7	=7	=7
8D\L	(16ff#\LL	.
.	16gg\	.
8dJ 8B 8F#\	16ff#\	.
.	16ee\JJ	.
8dL 8B 8F#\	16dd\LL	.
.	16cc#\	.
8dJ 8B 8F#\	16b\	.
.	16a\JJ)	.
8E\L	16f#X/LL	.
.	16a/	.
8dJ 8B 8G#X\	16ff#/	.
.	16ee/JJ	.
!!LO:LB:g=original
=8	=8	=8
8c#L 8A\	16a/LL	.
.	16cc#/	.
8dJ 8E\	16b/	.
.	16g#X/JJ	.
8c#L 8A\	16a/LL	.
.	16cc#/	.
8dJ 8E\	16b/	.
.	16g#/JJ	.
8c# 8A\	8a/L	.
8r	8a/J	.
=9	=9	=9
16F#LL 16D\	8a/L	.
16A\	.	.
16AA\	16b/L	.
16A\JJ	16cc#/JJ	.
*rep	*	*
16F#LL 16D\	16dd\LL	.
16A\	16ee\	.
16AA\	16ff#\	.
16A\JJ	16gg\JJ	.
*Xrep	*	*
*rep	*	*
16F#LL 16D\	16gg\LL	.
16A\	16bb\	.
16AA\	16ccc#\	.
16A\JJ	16ddd\JJ	.
*Xrep	*	*
=10	=10	=10
16GLL 16C#\	16ddd#X\LL	.
16A\	16eee\	.
16AA\	16fff#\	.
16A\JJ	16eee\JJ	.
*rep	*	*
16GLL 16C#\	4.aa\	.
16A\	.	.
16AA\	.	.
16A\JJ	.	.
*Xrep	*	*
*rep	*	*
16GLL 16C#\	.	.
16A\	.	.
16AA\	8gg\	.
16A\JJ	.	.
*Xrep	*	*
=11	=11	=11
8F#L 8D\	(8fff#\L	.
8dJ 8F#\	16eee\L	.
.	16ddd\JJ	.
!LO:N:vis=2	!	!
8G`\L	16ccc#\LL	.
.	16bb\	.
8e 8B\	16aa\	.
.	16gg\JJ	.
8e 8B\	16ff#\LL	.
.	16gg\	.
8eJ 8B\	16b\	.
.	16ee\JJ)	.
=12	=12	=12
8f#L 8d 8A\	(16dd\LL	.
.	16ff#\	.
8gJ 8e 8A\	16aa\	.
.	16cc#\JJ)	.
8r	(4ee\	.
!LO:SIC:v:n=2:s=8e	!	!
8g 8d 8A\	.	.
8f# 8d\	8dd\)	.
8r	8r	.
=13:|!|:	=13:|!|:	=13:|!|:
!LO:TX:a:t=P:problem=mixed beam	!	!
8AA/L	(8ee\L	.
8eJ 8c# 8A\	16dd#X\L	.
.	16ee\JJ	.
8eL 8c# 8A\	16ff#\LL	.
.	16gg#X\	.
8e 8c# 8A\	16aa\	.
.	16ee\JJ	.
8e 8c# 8A\	16cc#\LL	.
.	16a\	.
8eJ 8c# 8A\	16ff#\	.
.	16ee\JJ)	.
=14	=14	=14
!LO:SIC:v:s=8BB\	!	!
8C#\L	8.ee\L	.
8eJ 8d 8G#X\	.	.
.	16dd\Jk	.
*tremolo	*	*
!LO:SIC:v:n=3:s=8G#\L	!	!
8e 8d 8A\L	(4.b\	.
!LO:SIC:v:n=3:s=8G#\	!	!
8e 8d 8A\	.	.
!LO:SIC:v:n=3:s=8G#\L	!	!
8e 8d 8A\	.	.
!LO:SIC:v:n=3:s=8G#\J	!	!
8e 8d 8A\J	8a/)	.
*Xtremolo	*	*
!!LO:LB:g=original
=15	=15	=15
*^	*	*
4e 4d 4B 4G#X\	2E\	16g#X/LL	.
.	.	16a/	.
.	.	16b/	.
.	.	16cc#/JJ	.
*tremolo	*	*	*
8e 8d 8B 8G#\L	.	16dd\LL	.
.	.	16dd#X\	.
8e 8d 8B 8G#\	.	16ee\	.
.	.	16ee#X\JJ	.
!	!	!LO:SIC:v:s=16gg#\LL	!
8e 8d 8B 8G#\	4ryy	16gg\LL	.
.	.	16ff#\	.
8e 8d 8B 8G#\J	.	16een\	.
*Xtremolo	*	*	*
.	.	16ddn\JJ	.
*v	*v	*	*
=16	=16	=16
8A\L	16b#X\LL	.
.	16cc#\	.
8eJ 8c#\	16dd\	.
.	16cc#\JJ	.
8e 8c#\	8cc#`\	.
!	!LO:N:vis=16	!
8r	(8ccc#\L	.
!	!LO:N:vis=16	!
4r	8ddd\	.
!	!LO:N:vis=16	!
.	8ddd#X\J)	.
=17	=17	=17
!	!LO:TUP:b:problem=klamra łukowa	!
16C#\LL	24eee\LL	.
.	24fff#\	.
16A\	.	.
.	24eee\	.
16E\	24ddd#X\	.
.	24eee\	.
16A\JJ	.	.
.	24aaa\JJ	.
*rep	*Xtuplet	*
!	!LO:SIC:v:s=24ggg#\LL	!
16C#\LL	24ggg\LL	<
.	24fff#\	.
16A\	.	.
.	24eee\	.
16E\	24dddn\	.
.	24ccc#\	.
16A\JJ	.	.
.	24bb\JJ	.
*Xrep	*	*
*rep	*	*
16C#\LL	24aa\LL	.
!	!LO:SIC:v:s=24gg#\	!
.	24gg\	.
16A\	.	.
.	24ff#\	[
16E\	24ee\	.
.	24dd\	.
16A\JJ	.	.
.	24cc#\JJ	.
*Xrep	*	*
=18	=18	=18
*^	*	*
4D/	16D\LL	(24b/LL	.
.	.	24cc#/	.
.	16B\	.	.
.	.	24b/	.
.	16F#\	24a#X/	.
.	.	24b/	.
.	16B\JJ	.	.
.	.	24b#X/JJ	.
*rep	*rep	*	*
4D/	16D\LL	24cc#\LL	.
.	.	24dd\	.
.	16B\	.	.
.	.	24dd#X\	.
.	16F#\	24ee\	.
.	.	24ee#X\	.
.	16B\JJ	.	.
.	.	24ff#\JJ	.
*Xrep	*Xrep	*	*
*rep	*rep	*	*
4D/	16D\LL	24gg\LL	.
.	.	24gg#X\	.
.	16B\	.	.
.	.	24aa\	.
.	16F#\	24aa#X\	.
.	.	24bb\	.
.	16B\JJ	.	.
.	.	24bb#X\JJ)	.
*Xrep	*Xrep	*	*
=19	=19	=19	=19
4E/	16E\LL	(24ccc#\LL	.
.	.	24eee\	.
.	16e\	.	.
.	.	24ddd\	.
!	!LO:TX:t=P:problem=16A poprawione na 16c#	!	!
.	16c#\	24ccc#\	.
.	.	24bb\	.
.	16e\JJ	.	.
.	.	24aa\JJ	.
*rep	*rep	*	*
4E/	16E\LL	24gg#X\LL	.
.	.	24ff#\	.
.	16e\	.	.
.	.	24ee\	.
.	16c#\	24dd#X\	.
.	.	24ff#\	.
.	16e\JJ	.	.
.	.	24ee\JJ	.
*Xrep	*Xrep	*	*
*rep	*rep	*	*
4E/	16E\LL	24ddn\LL	.
.	.	24cc#\	.
.	16e\	.	.
.	.	24b\	.
.	16c#\	24a\	.
!	!	!LO:SIC:v:s=24g#\	!
.	.	24g\	.
.	16e\JJ	.	.
.	.	24f#\JJ)	.
*Xrep	*Xrep	*	*
*v	*v	*	*
!!LO:LB:g=original
=20	=20	=20
4d 4B 4E\	16e/LL	.
.	16dd/	.
.	16f#/	.
.	16g#X/JJ	.
8r	4b/	.
8d 8G#X 8E\	.	.
8c# 8A\	8a/	.
8r	8r	.
*clefF4	*clefG2	*
!!LO:TX:t=[segno]:problem:znak segno na kresce taktowej
=21||	=21||	=21||
*k[f#c#]	*k[f#c#]	*
*M3/4	*M3/4	*
!!LO:TX:t=P:problem:metrum zapisane ułamkiem
!	!LO:TX:t=Trio	!
8GG/	4.bb\	.
*clefG2	*	*
8gL 8d 8B/	.	.
8g 8d 8B/	.	.
8gJ 8d 8B/	8bb\	.
8gL 8d 8B/	8aa\L	.
8gJ 8d 8B/	8gg\J	.
=22	=22	=22
*clefF4	*	*
8CC#/	(8.ff#\L	.
*clefG2	*	*
8aL 8e 8c#/	.	.
.	16ee\Jk)	.
8a 8e 8c#/	2ee\	.
8a 8e 8c#/	.	.
8a 8e 8c#/	.	.
8aJ 8e 8c#/	.	.
=23	=23	=23
*clefF4	*	*
8DD/	4.aa\	.
*clefG2	*	*
!LO:SIC:v:n=4:s=8A/	!	!
8a 8f# 8d 8c#/	.	.
*tremolo	*	*
!LO:SIC:v:n=4:s=8A/L	!	!
8a 8f# 8d 8c#/L	.	.
.	16qqee/LL	.
.	16qqdd/	.
.	16qqcc#/JJ	.
!LO:SIC:v:n=4:s=8A/	!	!
8a 8f# 8d 8c#/	8ddsS\	.
!LO:SIC:v:n=4:s=8A/	!	!
8a 8f# 8d 8c#/	8ee\L	.
!LO:SIC:v:n=4:s=8A/J	!	!
8a 8f# 8d 8c#/J	8ff#\J	.
*Xtremolo	*	*
*clefF4	*	*
=24	=24	=24
!LO:TX:a:t=P:problem=mixed beam	!	!
8GG/L	8.aa\L	.
8g 8f# 8d 8G\J	.	.
.	16gg\Jk	.
*tremolo	*	*
8g 8f# 8d\L	8gg\L	.
8g 8f# 8d\	8dd\J	.
8g 8f# 8d\	(16ee'\LL	.
.	16ff#'\	.
8g 8f# 8d\J	16gg'\	.
.	16aa'\JJ)	.
*Xtremolo	*	*
=25	=25	=25
!LO:TX:a:t=P:problem=mixed beam	!	!
8GG/L	8bb\	.
8dJ 8B 8G\	4bb\	.
*tremolo	*	*
8d 8B 8G\L	.	.
8d 8B 8G\	16ccc#\LL	.
.	16bb\JJ	.
8d 8B 8G\	16aa'\LL	.
.	16gg'\	.
8d 8B 8G\J	16ff#'\	.
.	16gg'\JJ	.
*Xtremolo	*	*
=26	=26	=26
!LO:N:vis=2	!	!
8C#\L	8ff#\L	.
8AJ 8E\	8ee\J	.
.	16qqff#/LL	.
.	16qqee/	.
.	16qqdd#X/	.
.	16qqee/JJ	.
8AL 8E\	16ggg\LL	.
.	16ddd#X\	.
8AJ 8E\	16eee\	.
.	16bb\JJ	.
8AL 8E\	16ccc#\LL	.
.	16ee\	.
8AJ 8E\	16bb\	.
.	16aa\JJ	.
!!LO:LB:g=original
=27	=27	=27
!LO:N:vis=2	!	!
8D\L	8aa\	.
8B 8G\J	4gg\	.
8B 8G\L	.	.
8B 8G\J	8dd\	.
8D\L	16cc#X\LL	.
.	16dd\	.
!LO:SIC:v:n=1:s=8cn	!	!
8c# 8A\J	16ee\	.
.	16ff#\JJ	.
=28	=28	=28
8B 8G\L	16gg\LL	.
.	16dd\	.
!LO:SIC:v:n=1:s=8cn	!	!
8c# 8A 8F#\J	16bb\	.
.	16aa\JJ	.
!	!LO:N:vis=8	!
8r	4aa\L	.
!LO:SIC:v:n=1:s=8cn	!	!
8c# 8F# 8D\	.	.
8B 8G\	8gg\J	.
8r	8r	.
=29:|!	=29:|!	=29:|!
*^	*	*
4BB 4BBB/	4ryy	4bb 4b\	.
4BB/	16BB\LL	8.bb 8.dd#X 8.b\L	.
.	16F#\	.	.
.	16B\	.	.
.	16F#\JJ	16bb 16dd# 16b\J	.
16AA#X\LL	4ryy	8.ccc# 8.ee 8.cc#X\L	.
16Gn\	.	.	.
16A#\	.	.	.
16G\JJ	.	16ccc# 16ee 16cc#\J	.
=30	=30	=30	=30
16AAnX\LL	4ryy	8.ddd 8.ff#X 8.dd\L	.
16F#\	.	.	.
16A\	.	.	.
16F#\JJ	.	16ddd 16ff# 16dd\J	.
16GG\LL	4ryy	8.eee 8.bb 8.ee\L	.
16E\	.	.	.
16G\	.	.	.
16E\JJ	.	16eee 16bb 16ee\J	.
4DD#X/	16DD#\LL	8.fff# 8.bb 8.ff#\L	.
.	16BB\	.	.
.	16D\	.	.
.	16BB\JJ	16fff# 16bb 16ff#\J	.
=31	=31	=31	=31
4EE/	16EE\LL	8.ggg 8.bb 8.gg\L	.
.	16BB\	.	.
.	16E\	.	.
.	16BB\JJ	16ggg 16bb 16gg\J	.
4DD/	16DD\LL	8.fff# 8.bb 8.ff#\L	.
.	16BB\	.	.
.	16D\	.	.
.	16BB\JJ	16fff# 16bb 16ff#\J	.
!	!	!LO:SIC:v:n=1:s=8.eeen	!
4CC#/	16CC#\LL	8.eee#X 8.aa#X 8.ff#\L	.
.	16C#\	.	.
.	16E\	.	.
!	!	!LO:SIC:v:n=1:s=16eeen\Jk	!
.	16C#\JJ	16eee#\Jk 16aa#\ 16ff#\J	.
=32	=32	=32	=32
*	*	*^	*
!LO:SIC:v:s=8D# 8DD#/	!	!	!	!
8D 8DD/	4ryy	8ddd#X 8bb 8ff#\L	4ryy	.
!LO:N:vis=8	!	!	!	!
16B 16BB\LL	.	16bb 16b\L	.	.
!LO:N:vis=8	!	!	!	!
16B 16BB\JJ	.	16bb 16b\JJ	.	.
8B 8BB\L	4ryy	8bb 8b\L	4ryy	.
8B 8BB\J	.	8bb 8b\J	.	.
4c#X/	8E\L	4aa#X/	8gg\L	.
.	16D\L	.	16ff#\L	.
.	16C#\JJ	.	16ee\JJ	.
=33	=33	=33	=33	=33
8B/	8F# 8BB\	8bb/	8dd#X\	.
16BB 16BBB/LL	8ryy	16b/LL	8ryy	.
16BB 16BBB/JJ	.	16b/JJ	.	.
!LO:TX:t=P:problem=zbędna 8D	!	!	!	!
8D 8BB/ 8BBB/L	8ryy	8b/L	4ryy	.
8BB 8BBB/J	8ryy	8b/J	.	.
4C#X/	8EE\L	8a#X/L	4a#\	.
.	16FF#\L	16f#/L	.	.
.	16GG\JJ	16e/JJ	.	.
!!LO:PB:g=original
=34	=34	=34	=34	=34
8BB/	8BBB\	8b/	8d#X\	.
16BB 16BBB\LL	8ryy	16B< 16D#X</LL	8ryy	.
16BB 16BBB\JJ	.	16B< 16D#</JJ	.	.
8BB 8BBB\L	2ryy	8B< 8D#</L	2ryy	.
8BB 8BBB\J	.	8B< 8D#</J	.	.
8BB 8BBB\L	.	8B< 8D#</L	.	.
8BB 8BBB\J	.	8B< 8D#</J	.	.
*v	*v	*	*	*
*	*v	*v	*
=35	=35	=35
*	*tuplet	*
8BB 8BBB\L	24B</LL	.
.	24F#</	.
.	24D#X</	.
8FF#\J	24f#</	.
.	24B</	.
.	24D#</JJ	.
*	*Xtuplet	*
!	!LO:TX:t=P:problem=zbędna 24c#	!
!	!LO:SIC:v:n=1:s=24d#<	!
8BB 8BBB\L	24d< 24c#</LL	.
.	24B</	.
.	24D#</	.
8FF#\J	24f#</	.
.	24B</	.
.	24D#</JJ	.
!	!LO:SIC:v:s=24d#</LL	!
8BB 8BBB\L	24d</LL	.
.	24B</	.
.	24D#</	.
8FF#\J	24f#</	.
.	24B</	.
.	24D#</JJ	.
=36	=36	=36
*	*^	*
4.BB 4.BBB\	4r	4.B< 4.D#X</	.
.	8r	.	.
8r	8bb 8b\L	8ryy	.
4r	8bb 8b\	4ryy	.
.	8bb 8b\J	.	.
*	*v	*v	*
!	!LO:TX:b:i:t=D.C. Trio	!
==	==	==
*-	*-	*-
!!!system-decoration: (s1,s2)
!!!RDF**kern: > = above
!!!RDF**kern: < = below
!!!AIN: 1 piano
!!!ENC: Katarzyna Serwa
!!!END: 2022-01-06
!!!ENC: Tomasz Grochalski
!!!END: 2020-06-19
